X: 19061
T: Irene Goodnight
R: waltz
M: 3/4
K: Emajor
E6|F4 E2|D4 C2|B,6|F6 n|G4 F2|(E6|E4) E2|G4 G2|F4 E2|F4 E2|
C4 C2|B,4 F2|G4 GF|(E6|E6)||E2 E2 E2|F4 E>C|D2 (F4|F6)|
B2 B2 B2|F2 G2 F2|(E6|E6)|B2 G2 G2|G3 F E2|A,2 (C4|C4) C2|
B,3 F FF|G G3 F2|(E6|E6)||

